form-textbox.svg

<svg fill="currentColor" viewBox="0 0 24 24"><path d="M17 7h5v10h-5v2a1 1 0 0 0 1 1h2v2h-2.5c-.55 0-1.5-.45-1.5-1 0 .55-.95 1-1.5 1H12v-2h2a1 1 0 0 0 1-1V5a1 1 0 0 0-1-1h-2V2h2.5c.55 0 1.5.45 1.5 1 0-.55.95-1 1.5-1H20v2h-2a1 1 0 0 0-1 1zM2 7h11v2H4v6h9v2H2zm18 8V9h-3v6z"/></svg>

<svg  viewBox="0 0 24 24" fill="currentColor"><path  d="M17,7H22V17H17V19A1,1 0 0,0 18,20H20V22H17.5C16.95,22 16,21.55 16,21C16,21.55 15.05,22 14.5,22H12V20H14A1,1 0 0,0 15,19V5A1,1 0 0,0 14,4H12V2H14.5C15.05,2 16,2.45 16,3C16,2.45 16.95,2 17.5,2H20V4H18A1,1 0 0,0 17,5V7M2,7H13V9H4V15H13V17H2V7M20,15V9H17V15H20Z"/></svg>
